X: 146
T:Blin' Jamie
M:C
L:1/8
C:J Scott Skinner
K:D
"D"A2 B>A F<A d2|"A"e/2d/2c "D"d>A "Em"B>EE>B|"D"A2 B>A F<A d2|"A"e/2d/2
c d>A "D"F>D[A,2D2]:||!
g|"D"(f>d) (c>d) A/2B/2c d>f|"A7"g>e^d>e B/2c/2^d eg|"D"f>d c>d A/2B/2c
d>f
|"A"e/2d/2c dA "D"FD[A,D] g|!
"D" f>dc>d (3ABc (3def|"A7"g>e^d>e (3Bc^d (3efg|"D"(3fed "A"(3edc "G"(3
dcB "A"(3cBA|
"G"(3BAG "A"(3ABc "D"dD [A,2D2]||
% <A name="D1X147">
